!!!SOCIAL_FUNCTION:	rudimentary (?)
!!!PDT:	1922
!!!OTL: Untitled Game Song
!!!REG: Southwest
!!!LANG: Non-Tone
!!!LING_GROUP: Uto-Aztecan
**kern
*staff1
=1-
*clefG2
*k[]
*M2/4
aq/
4cc\
aq/
4cc\
=2
aq/
8cc\
4.cc\
=3
ccq/
4ee\
4gg\
=4
eeq/
8gg\L
eeq/
8gg\J
eeq/
4gg\
=5
ggq/
8aa\
4.gg\
=6
eeq/
4gg\
4gg\
=7
4dd\
4cc\
=8
aq/
8cc\
4.cc\
=9
12ee\L
12dd\
12cc\J
12ee\L
12dd\
12cc\J
=10
ddq/
8cc\
aq/
4.cc\
=11
aq/
4g/
4g/
=12
eq/
8d/
4.c/
=13
eq/
8d/
4.c/
=14
dq/
2c/
==:|!
*-
